!!!!SEGMENT: pl-wtm--a-43-196-99--001-002_kazuro-stanislaw--25-piesni-dzieciecych-z-fortepianem-op-49-prosie.krn
!!!cenid: 19xx:198
!!!COM: Kazuro, Stanisław
!!!COM-rismID: pe50047136
!!!CDT: 1881/08/02-1961/11/30
!!!CNT: Polish
!!!GTL: 25 Pieśni dziecięcych z fortepianem, op. 49
!!!OTL: Prosię
!!!OMV: 002
!!!PDT: 1950
!!!AGN:
!!!YEC: Copyright 2022 Narodowy Instytut Fryderyka Chopina (https://polishscores.org)
!!!YEM: License CC-BY-4.0 (https://creativecommons.org/licenses/by/4.0)
!!!SMS-siglum: PL-Wtm
!!!SMS-shelfmark: A-43.196/99
!!!SMS-variant:
!!!SMS-altvar:
!!!SMS-shelfwork: 001-002 G
!!!NIFC-rismSourceID: 1001164821
!!!NIFC-rismChildID: 1001164821
!!!NIFC-islandoraID: pl-wtm:43198
!!!URL-pdf-islandora: https://repozytorium.nifc.pl/islandora/object/pl-wtm:43198/datastream/PDF/view
!!!URL-scan: https://polish.musicsources.pl/pl/lokalizacje/galeria/druki-muzyczne/22428/4 @EN{Scan on Polish Music Sources Website} @PL{Skany w portalu Dziedzictwo Muzyki Polskiej w otwartym dostępie}
!!!IIIF:
!!!ONB-nifc:
!!!AIN: 1 piano 1 vox
!!!key: e
!!!OMD: Tempo di mazurka.
**kern	**kern	**dynam	**kern	**text	**dynam
*part2	*part2	*part2	*part1	*part1	*part1
*staff3	*staff2	*staff2/3	*staff1	*staff1	*staff1
*I"[Piano]	*I"[Piano]	*	*I"[Voice]	*	*
*I'pf	*I'pf	*	*I'V	*	*
*Ipiano	*Ipiano	*	*Ivox	*	*
*ICklav	*ICklav	*	*ICvox	*	*
*IGacmp	*IGacmp	*	*IGcolor	*	*
*>[A,B,A]	*>[A,B,A]	*>[A,B,A]	*>[A,B,A]	*>[A,B,A]	*>[A,B,A]
*>A	*>A	*>A	*>A	*>A	*>A
*clefF4	*clefG2	*	*clefG2	*	*
*k[]	*k[]	*	*k[]	*	*
*e:	*e:	*	*e:	*	*
*M3/4	*M3/4	*	*M3/4	*	*
=1	=1	=1	=1	=1	=1
!	!	!	!LO:TX:a:t=Słowa I. K. Iłłakowiczówny.	!	!
!	!	!	!LO:N:vis=1	!	!
4d#X 4B\	4gg: 4ff#X: 4a:\	mf	4g/	Kjui!	.
!	!	!	!LO:N:vis=1	!	!
4d# 4B-X\	4ggn: 4ff#: 4g#X:\	.	4g/	kjui,	.
!	!	!	!LO:N:vis=1	!	!
4c#X 4A\	4gg: 4ff#: 4gn:\	.	4g/	kjui,	.
=2	=2	=2	=2	=2	=2
!	!	!	!LO:N:vis=1	!	!
4f#X 4cn 4A-X\	4gg: 4ff#X:\	.	4g/	kjui,	.
!	!	!	!LO:N:vis=1	!	!
4e 4B-X 4G-X\	4ggn: 4ff#:\	.	4g/	kjui,	.
!	!	!	!LO:N:vis=1	!	!
4d#X 4Bn 4Gn\	4gg: 4ffn: 4gn:\	.	4g/	kjui.	.
!!LO:LB:g=original
=3	=3	=3	=3	=3	=3
*^	*^	*	*	*	*
4C 4CC/	4ryy	4ccc 4gg 4ee/	4cc\	f	4r	.	.
!	!	!	!	!	!	!	!LO:DY:rj
4G/	4E\	4.g/	2c\	.	4.g^>/	Pro-	mf
4A/	4F\	.	.	.	.	.	.
.	.	8e/	.	.	8e/	-się	.
=4	=4	=4	=4	=4	=4	=4	=4
4DD 4DDD/	4ryy	8.f/L	4c 4A\	.	8.f/	prze-	.
.	.	16e/Jk	.	.	16e/	-bra-	.
4G#X/	4E\	4d/	4c\	.	4d/	-ło	.
.	.	4qqa#X/	.	.	.	.	.
4ryy	4ryy	4dd 4b 4gn/	4f\	.	4g/	się	.
=5	=5	=5	=5	=5	=5	=5	=5
4EE 4EEE/	4ryy	8ee/L	4b 4g\	.	(8e/L	i	.
.	.	8dd/J	.	.	8g/J)	.	.
4c/	4A\	4cc 4g/	8f\L	.	4.cc\	po-	.
.	.	.	8e\J	.	.	.	.
4A/	4F\	8ffL 8dd#X/	4a\	.	.	.	.
.	.	8b/J	.	.	8b\	-szło	.
*v	*v	*	*	*	*	*	*
!!LO:LB:g=original
=6	=6	=6	=6	=6	=6	=6
8.g#X:L 8.B: 8.E:\	8.bbL 8.ee/	8.dd\L	.	8.dd\	spa-	.
16a\Jk	16aaJk 16ee/	16cc\Jk	.	16cc\	-ce-	.
4e\	4gg#X 4dd/	4b\	.	4b\	-ro-	.
4e-X\	4ggn 4cc/	4a\	.	4a/	-wać	.
=7	=7	=7	=7	=7	=7	=7
(8d\L	4ff 4b/	4g\	.	8g/	o	.
8d-X\J	.	.	.	8b\	wie-	.
8c\L	4ee 4a/	4f\	.	4ee\	-czo-	.
8B\	.	.	.	.	.	.
8A\	4dd 4b/	4f\	.	4dd\	-rnej	.
8A-X\J)	.	.	.	.	.	.
*	*v	*v	*	*	*	*
=8	=8	=8	=8	=8	=8
(>8qF#X/	.	.	.	.	.
4G\)	2cc 2g 2e/	.	4cc\	ro-	.
4C 4CC/	.	.	4cc\	-sie.	.
!	!LO:TX:a:Bi:t=Fine.	!	!	!	!
4r	4r	.	4r	.	.
!!LO:PB:g=original
=9	=9	=9	=9	=9	=9
*>B	*>B	*>B	*>B	*>B	*>B
*^	*	*	*	*	*
8qAA#X/	.	.	.	.	.	.
4BB/	4EE\	(8bb\L	.	8b\	Stróż	mp
!	!	!	!	!LO:TX:a:B:t=Meno mosso.	!	!
.	.	8aa\	.	8b\	mu	.
8qD#X/	.	.	.	.	.	.
4E/	4AAn\	8gg\	.	4b\	wej-	.
.	.	8ff#X\	.	.	.	.
8qA#X/	.	.	.	.	.	.
4B/	4E\	8ee\	.	4b\	-ścia	.
.	.	8dd\J	.	.	.	.
=10	=10	=10	=10	=10	=10	=10
8qd#X/	.	.	.	.	.	.
4e/	4A\	8cc/L	.	4a/	nie	.
.	.	8b/	.	.	.	.
*clefG2	*	*	*	*	*	*
8qdd#X/	.	.	.	.	.	.
4ee/	4a\	8a/	.	4cc\	bro-	.
.	.	8g/	.	.	.	.
8qccc#X/	.	.	.	.	.	.
4ddd/	4ff#X\	8f#X/	.	4a/	-nił.	.
.	.	8an/J	.	.	.	.
*clefF4	*	*	*	*	*	*
!!LO:LB:g=original
=11	=11	=11	=11	=11	=11	=11
4BB 4BBB/	4ryy	8b/L	.	8b\	o-	.
.	.	8a/	.	8a/	-gro-	.
8qG#X/	.	.	.	.	.	.
4A/	4C#X\	8g/	.	8g/	-dni-	.
.	.	8f#X/	.	8f#X/	-czek	.
*clefG2	*	*	*	*	*	*
8qff#X/	.	.	.	.	.	.
4gg/	4ccn\	8e/	.	8e/	mu	.
.	.	8g/J	.	8g/	się	.
*v	*v	*	*	*	*	*
*clefF4	*	*	*	*	*
=12	=12	=12	=12	=12	=12
*	*^	*	*	*	*
*	*	*^	*	*	*	*
4AA 4AAA/	4f#X/)	4c\	2e\	.	4f#X/	u-	.
4FF#X 4FFF#X/	(4an/	4A#X\	.	.	4a/	-kło-	.
4BB 4BBB/	4f#/	4An\	4d#X\	.	4d#X/	-nił,	.
*	*	*v	*v	*	*	*	*
=13	=13	=13	=13	=13	=13	=13
*^	*	*	*	*	*	*
4G/	4C 4CC\	4e/)	4c\	.	8e/	a-	.
.	.	.	.	.	8f#X/	-le	.
!	!	!	!	!	!LO:TX:B:t=:fnote@@PL=Naśladując szczekanie (szczekając)	!	!
!	!	!	!	!	!LO:TX:a:B:t=Abbaiando *):dur=5q:ext=u:PROBLEM=text with extension lines	!	!
4c/	4A\	4g`/	8d#X\L	<	4g`>/	Bu-	.
.	.	.	8e\	.	.	.	.
4d/	4B\	4a`/	8f\	.	4a`>/	-rek	.
.	.	.	8f#X\J	[[	.	.	.
*v	*v	*	*	*	*	*	*
*	*v	*v	*	*	*	*
!!LO:LB:g=original
=14	=14	=14	=14	=14	=14
*^	*^	*	*	*	*
4e/	4c\	4b`/	4g\	.	4b`\	je	.
4f#X^\	2ryy	(4dd^/	2g\	.	4dd`\	po-	.
4e\	.	4cc/)	.	.	4cc`\	-znał	.
*v	*v	*	*	*	*	*	*
=15	=15	=15	=15	=15	=15	=15
!	!	!	!	!LO:TX:a:Bi:t=Stringendo	!	!
(4d#X\	(4b^/	4a\	mf	4b,\	i	mf
4dn\	4ee/	4g\	.	4ee\	precz	.
4c\	4b/	4f#X\	.	4b\	wy-	.
=16	=16	=16	=16	=16	=16	=16
*^	*	*	*	*	*	*
4A\)	2ryy	8a/L)	4d\	.	(8a/L	-go-	.
.	.	8g/J	.	.	8g/J)	.	.
8r	.	4e 4B 4G/	2ryy	.	4e/	-nił.	.
(>16D#X/LL	.	.	.	.	.	.	.
16E/JJ	.	.	.	.	.	.	.
4BB;/)	4EE;\	4r;	.	.	4r;	.	.
*v	*v	*	*	*	*	*	*
*	*v	*v	*	*	*	*
=:|!	=:|!	=:|!	=:|!	=:|!	=:|!
*-	*-	*-	*-	*-	*-
!!!system-decoration: s1{(s2,s3)}
!!!RDF**kern: > = above
!!!ENC: Andrzej Gręziak
!!!END: 2025-03-27
!!!EED: Marta Lawrence
!!!EEV: 2025-03-31
